X:1
T:The Resurrection Morning
T:The Resurrection Morning
T:Haldor Lillenas
T:Haldor Lillenas, 1917
T:Public Domain Courtesy of the Cyber Hymnal™
T:Public Domain Courtesy of the Cyber Hymnal™
C:Haldor Lillenas
Z:Public Domain
Z:Courtesy of the Cyber Hymnal™
%%score ( 1 2 ) ( 3 4 )
L:1/8
Q:1/4=95
M:4/4
K:G
V:1 treble 
V:2 treble 
V:3 bass 
V:4 bass 
V:1
 G[GA] | [GB][GB][GB][GB] [GB]2 G[GB] | [Gd][Gd][Gd][Gd] [GB]2 [GB][FA] | GGGG [EG][^CE][DF][EG] | %4
w: 1.~When the|trump of God shall sound, From the|lone- ly grave and mound, On the|re- sur- rec- tion morn- ing we shall|
w: 2.~Mar- tyred|mil- lions who were slain, Shall come|forth with Christ to reign— On the|re- sur- rec- tion morn- ing we shall|
w: 3.~Those who|left us years a- go, We shall|meet a- gain and know— On the|re- sur- rec- tion morn- ing we shall|
w: 4.~If the|Lord should come to- day, With a|thrill our hearts can say, On the|re- sur- rec- tion morn- ing we shall|
 [FA]6 G[GA] | [GB][GB][GB][GB] [GB]2 G[GB] | [Gd][Gd][Gd][Gd] !fermata![Ge]2 [Ge][Ge] | %7
w: rise; From the|grave for- ev- er free, Clothed with|im- mor- tal- i- ty, On the|
w: rise; Pa- tri-|archs and sag- es old Will a-|rise from dust and mold, On the|
w: rise; Death has|lost its dread- ed sting, With tri-|umph- ant joy we sing, On the|
w: rise; For the|liv- ing who re- main, Shall be|caught up with- out pain, On the|
 [Gd][Gd][Gd][Fc] [GB][GB][FA][FA] | (G2 EE D2) ||"^Refrain" [GB][Gc] | %10
w: re- sur- rec- tion morn- ing we shall|rise. * * *||
w: re- sur- rec- tion morn- ing we shall|rise. * * *||
w: re- sur- rec- tion morn- ing we shall|rise. * * *||
w: re- sur- rec- tion morn- ing we shall|rise. * * *||
 [Gd][Gd][Gd][Gd] [Gd][Gd][GB][Gc] | [Gd]6 G[GA] | [GB][GB][GB][GB] [Gd][Gd][Ac][GB] | %13
w: |||
w: |||
w: |||
w: |||
 A6 !fermata!G[GA] | [GB][GB][GB][GB] [GB]2 G[GB] | [Gd][Gd][Gd][Gd] !fermata![Ge]2 [Ge][Ge] | %16
w: |||
w: |||
w: |||
w: |||
 [Gd][Gd][Gd][Fc] [GB][GB][FA][FA] | (G2 EE D2) |] %18
w: ||
w: ||
w: ||
w: ||
V:2
 G x | x6 G x | x8 | GGGG x4 | x6 G x | x6 G x | x8 | x8 | G6 || x2 | x8 | x6 G x | x8 | %13
 (F2 GG F2) G x | x6 G x | x8 | x8 | G6 |] %18
V:3
[K:C] [G,B,][G,C] | [G,D][G,D][G,D][G,D] [G,D]2 [G,B,][G,D] | %2
w: ~ ~|~ ~ ~ ~ ~ ~ ~|
 [G,B,][G,B,][G,B,][G,B,] [G,D]2 [G,D][D,C] | %3
w: ~ ~ ~ ~ ~ ~ ~|
 [E,B,][E,B,][E,B,][E,B,] [A,,^C][A,,C][A,,A,][^C,A,] | [D,A,]6 [G,B,][G,C] | %5
w: ~ ~ ~ ~ ~ ~ ~ ~|~ ~ ~|
 [G,D][G,D][G,D][G,D] [G,D]2 [G,B,][G,D] | [G,B,][G,B,][G,B,][G,B,] !fermata![C,C]2 [C,C][C,C] | %7
w: ~ ~ ~ ~ ~ ~ ~|~ ~ ~ ~ ~ ~ ~|
 [D,B,][D,B,][D,B,][D,A,] [D,D][D,D][D,C][D,C] | (B,2 CC B,2) || G,[G,A,] | %10
w: ~ ~ ~ ~ ~ ~ ~ ~|~ * * *|On the|
 [G,B,][G,B,][G,B,][G,B,] [G,B,][G,B,]G,[G,A,] | ([G,B,]2 [G,B,][G,B,] [G,B,]2) [G,B,][G,C] | %12
w: re- sur- rec- tion morn- ing we shall|rise, * * * And to-|
 [G,D][G,D][G,D][G,D] [G,B,][G,B,][G,D][G,D] | ([D,D]2 [E,^C][E,C] !fermata![D,=C]2) [G,B,][G,C] | %14
w: ge- ther meet the Sav- ior in the|skies, * * * From the|
 [G,D][G,D][G,D][G,D] [G,D]2 [G,B,][G,D] | [G,B,][G,B,][G,B,][G,B,] !fermata![C,C]2 [C,C][C,C] | %16
w: grave for- ev- er free, Clothed with|im- mor- tal- i- ty, On the|
 [D,B,][D,B,][D,B,][D,A,] [D,D][D,D][D,C][D,C] | (B,2 CC B,2) |] %18
w: re- sur- rec- tion morn- ing we shall|rise. * * *|
V:4
[K:C] x2 | x8 | x8 | x8 | x8 | x8 | x8 | x8 | G,,6 || G, x | x6 G, x | x8 | x8 | x8 | x8 | x8 | %16
 x8 | G,,6 |] %18

